X: 1307
T: Lawson's Favorite
R:Reel
N:Collected by Lawson
B:O'Neill's 1307
Z:Transcribed by Trish O'Neil
M:C|
L:1/8
K:D
d2(AG) FDDF|E>c(3.c.c.c E>c(3.c.c.c|(3dcB (3cBA BGAG|FGEF Dgfe|
d2(AG) FDDF|E>c(3.c.c.c ABce|dBcA BGAG|FGEF"H"D2||
g2|f>d (3ddd (fd)ad|edcd efge|f>d (3ddd (fd)ad|cAGED2(de)|
f>d (3ddd (fd)ad|edcd efge|(3fga (ge) fdec|Agfe de"D.C."fe|]


